X: 7687
T: Coleraine, The
R: jig
M: 6/8
K: Aminor
|:E2A ABc|~B3 edB|cBc ABc|BG^F ~E2D|
E2A ABc|~B3 edB|cBA ^GAB|1 ~A3 A2D:|2 ~A3 GAB||
|:c3 cdc|Bgg g2^g|age ~c2A|^GBG ~E3|
AEE BEB|cde fed|cBA ^GAB|1 ~A3 GAB:|2 ~A3 A2D||

